X: 20
T:Nigun Atik
R:Israeli
C:Trad (Israeli)
M:4/4
L:1/8
K:Am
"E" ^GA F^G "Dm" AB ^GA|"E" B8|"E"Bc de "Dm"dc BA|"E"B8|
"E" Be ed "Dm"dc cB|"F"A2 AB "E"^G4|"E"^GA F^G "Dm"AB ^GF|"E"E8|
"C" e4e4|"G" de dc d2 B2|"Am" c4 c2 BA|"E"B2e2B2E2|
"C" e4e4|"G" de dc d2 B2|"F" AB cA "E"Bc B^G"Am" |A8||
